X: 124
T:Bucks of Oranmore, The
M:C|
L:1/8
R:Reel
K:D
dB[|:A3F A2dB|A2FA BE~E2|A2FA A2Bd|egfd edBd|!
A3F A2dB|A2FA BE~E2|DEFA AFAB|defd "var."efdB|]!
AD~D2 ADdB|ADFA BE~E2|AD~D2 A2Bd|egfd edBd|!
AD~D2 ADdB|ADFA BE~E2|DEFA AFAB|defd efge|]!
a2fd efdf|a2fd edBd|a2fd edef|gefd edBd|!
a2fd efdf|a2fd edBd|faaf bfaf|defd "var."efde|]!
f2df e2de|f2df eB~B2|f2df edef|gefd edBd|!
f2df e2de|f2df eB~B2|fa~a2 bfaf|defd edBd|]!
Adfd edfd|Adfd edBd|Adfd edef|gefd edBd|!
Adfd edfd|Adfd edBd|faaf bfaf|defd efdB|]!
